src/svg/eye-outline.svg

<svg version="1.2" baseProfile="tiny" xmlns="http://www.w3.org/2000/svg" width="24" height="24" viewBox="0 0 24 24"><path d="M12 9c1.211 0 2.381.355 3.297 1.004 1.301.92 2.43 2.124 3.165 2.996-.735.872-1.864 2.077-3.166 2.996-.915.649-2.085 1.004-3.296 1.004s-2.382-.355-3.299-1.004c-1.301-.92-2.43-2.124-3.164-2.996.734-.872 1.863-2.076 3.164-2.995.917-.65 2.088-1.005 3.299-1.005m0-2c-1.691 0-3.242.516-4.453 1.371-2.619 1.852-4.547 4.629-4.547 4.629s1.928 2.777 4.547 4.629c1.211.855 2.762 1.371 4.453 1.371s3.242-.516 4.451-1.371c2.619-1.852 4.549-4.629 4.549-4.629s-1.93-2.777-4.549-4.629c-1.209-.855-2.76-1.371-4.451-1.371zM12 12c-.553 0-1 .447-1 1 0 .551.447 1 1 1 .551 0 1-.449 1-1 0-.553-.449-1-1-1zM12 16c-1.654 0-3-1.346-3-3s1.346-3 3-3 3 1.346 3 3-1.346 3-3 3zm0-5c-1.104 0-2 .896-2 2s.896 2 2 2 2-.896 2-2-.896-2-2-2z"/></svg>

<?xml version="1.0" encoding="iso-8859-1"?>
<!-- Generator: Adobe Illustrator 16.2.1, SVG Export Plug-In . SVG Version: 6.00 Build 0)  -->
<svg version="1.2" baseProfile="tiny" id="Layer_1" xmlns="http://www.w3.org/2000/svg" xmlns:xlink="http://www.w3.org/1999/xlink"
	 x="0px" y="0px" width="24px" height="24px" viewBox="0 0 24 24" xml:space="preserve">
<g>
	<path d="M12,9c1.211,0,2.381,0.355,3.297,1.004c1.301,0.92,2.43,2.124,3.165,2.996c-0.735,0.872-1.864,2.077-3.166,2.996
		C14.381,16.645,13.211,17,12,17s-2.382-0.355-3.299-1.004C7.4,15.076,6.271,13.872,5.537,13c0.734-0.872,1.863-2.076,3.164-2.995
		C9.618,9.355,10.789,9,12,9 M12,7c-1.691,0-3.242,0.516-4.453,1.371C4.928,10.223,3,13,3,13s1.928,2.777,4.547,4.629
		C8.758,18.484,10.309,19,12,19s3.242-0.516,4.451-1.371C19.07,15.777,21,13,21,13s-1.93-2.777-4.549-4.629
		C15.242,7.516,13.691,7,12,7z"/>
</g>
<g>
	<path d="M12,12c-0.553,0-1,0.447-1,1c0,0.551,0.447,1,1,1c0.551,0,1-0.449,1-1C13,12.447,12.551,12,12,12z"/>
</g>
<g>
	<path d="M12,16c-1.654,0-3-1.346-3-3s1.346-3,3-3s3,1.346,3,3S13.654,16,12,16z M12,11c-1.104,0-2,0.896-2,2s0.896,2,2,2
		s2-0.896,2-2S13.104,11,12,11z"/>
</g>
</svg>
